packages/core/src/svgs/tokens/branded/LUFC.svg

<svg width="24" height="24" viewBox="0 0 24 24" fill="none" xmlns="http://www.w3.org/2000/svg">
<path fill-rule="evenodd" clip-rule="evenodd" d="M12 22C14.6522 22 17.1957 20.9464 19.0711 19.071C20.9464 17.1957 22 14.6522 22 12C22 9.34785 20.9464 6.80429 19.0711 4.92892C17.1957 3.05357 14.6522 2 12 2C9.34784 2 6.80429 3.05357 4.92892 4.92892C3.05357 6.80429 2 9.34785 2 12C2 14.6522 3.05357 17.1957 4.92892 19.071C6.80429 20.9464 9.34784 22 12 22ZM12 21.6117C13.2622 21.6117 14.512 21.3631 15.6783 20.8801C16.8444 20.397 17.904 19.689 18.7966 18.7965C19.689 17.904 20.3971 16.8444 20.8801 15.6782C21.3631 14.5121 21.6117 13.2622 21.6117 12C21.6117 10.7377 21.3631 9.48785 20.8801 8.32172C20.3971 7.15558 19.689 6.09598 18.7966 5.20344C17.904 4.31092 16.8444 3.60292 15.6783 3.11988C14.512 2.63685 13.2622 2.38822 12 2.38822C9.45078 2.38822 7.006 3.40089 5.20344 5.20344C3.40089 7.006 2.38822 9.45079 2.38822 12C2.38822 14.5491 3.40089 16.9939 5.20344 18.7965C7.006 20.599 9.45078 21.6117 12 21.6117Z" fill="#FDDF04"/>
<path d="M6.70589 9.67643C6.70589 10.5293 6.7 15.4236 12 18.4706C17.3 15.4236 17.2941 10.5293 17.2941 9.67643V9.64706C17.2941 8.90586 17.2058 7.97058 17.0647 7.64704C15.9177 6.07057 13.2117 5.58234 12 5.53528C10.7882 5.58234 8.08237 6.06468 6.9353 7.65293C6.76343 8.30316 6.68617 8.97476 6.70589 9.64706V9.67643Z" fill="#0060A4"/>
<path d="M10.8232 10.2354H13.1762V17.2941H10.8232V10.2354Z" fill="#FDDF04"/>
<path d="M11.1707 10.5176H12.8883V17.2117H11.1707V10.5176Z" fill="#FEFEF7"/>
<path d="M9.25295 10.6117L8.21177 11.847L7.74707 11.4764L8.78824 10.2354L9.25295 10.6117ZM14.7707 10.6117L15.7589 11.847L16.2235 11.4764L15.2353 10.2354L14.7707 10.6117ZM11.1001 14.4823L9.94121 15.8236L9.50584 15.4412L10.8235 14.0589L11.1001 14.4823ZM12.8706 14.4823L14 15.8177L14.353 15.5294L13.1764 14.0589L12.8706 14.4823ZM11.0412 10.606L8.5706 13.5177L8.1059 13.1412L10.5764 10.2295L11.0471 10.606H11.0412ZM12.9294 10.606L15.4 13.5177L15.8706 13.1412L13.3823 10.2354L12.9235 10.6117L12.9294 10.606ZM11.1706 12.4412L9.08237 14.8353L8.62354 14.4588L10.8235 12L11.1706 12.4412ZM12.8823 12.5882L14.8942 14.8412L15.3471 14.4529L13.1764 12L12.8823 12.5882Z" fill="#FDDF04"/>
<path d="M7.88232 10.2354H16.1176V10.8235H7.88232V10.2354Z" fill="#FDDF04"/>
<path fill-rule="evenodd" clip-rule="evenodd" d="M12.0529 7.26471L12.0117 7.07059L11.9763 7.26471C11.4353 7.28236 10.9823 7.63529 10.8293 8.11765L10.5881 8.08824L10.8058 8.20588C10.7497 8.43668 10.7633 8.67895 10.8451 8.90201C10.9267 9.12504 11.0728 9.3189 11.2647 9.45877L11.1293 9.72943L11.3587 9.51765C11.5562 9.63816 11.7832 9.70198 12.0146 9.70198C12.246 9.70198 12.4729 9.63816 12.6706 9.51765L12.8999 9.72943L12.7646 9.45877C12.957 9.31794 13.1033 9.12307 13.185 8.899C13.2667 8.67493 13.28 8.43167 13.2234 8.2L13.4411 8.08235L13.2059 8.11765C13.1256 7.87365 12.9714 7.66058 12.765 7.5078C12.5584 7.35503 12.3097 7.2701 12.0529 7.26471ZM12.0529 7.26471C12.0274 7.26408 12.0019 7.26408 11.9763 7.26471L11.7941 8.24118L10.8234 8.11765L10.7999 8.2L11.6528 8.65294L11.2588 9.45877L11.3529 9.51765L12.0058 8.90588L12.6647 9.51765L12.7587 9.45877L12.3646 8.65294L13.2175 8.2C13.2175 8.17059 13.2059 8.14117 13.1941 8.11765L12.2293 8.24118L12.047 7.26471H12.0529Z" fill="#FEFEF7"/>
<path d="M12.4587 8.52939C12.4587 8.77645 12.2528 8.97644 11.9999 8.97644C11.9403 8.97722 11.8813 8.96627 11.8261 8.94423C11.7708 8.92218 11.7204 8.88946 11.6779 8.84796C11.6352 8.80644 11.6013 8.75694 11.5777 8.70227C11.5542 8.64762 11.5418 8.58887 11.541 8.52939C11.541 8.27644 11.7469 8.07645 11.9999 8.07645C12.2528 8.07645 12.4587 8.27644 12.4587 8.52939Z" fill="#DAD777"/>
<path fill-rule="evenodd" clip-rule="evenodd" d="M12 16.9412C9.55293 15.3058 7.88238 12.6352 7.88238 9.6764C7.88313 9.19412 7.91852 8.71249 7.98827 8.23524C8.52124 7.72268 9.16545 7.34017 9.87068 7.1176C10.6765 6.847 11.5 6.72936 12 6.70584C12.5001 6.72936 13.3236 6.847 14.1294 7.1176C14.8346 7.34017 15.4788 7.72268 16.0117 8.23524L16.0647 8.61759C16.1 8.97054 16.1177 9.32352 16.1177 9.6764V9.6823C16.1177 10.4058 15.9824 14.2706 12 16.9471V16.9412ZM17.2941 9.6764C17.2941 10.5293 17.3 15.4235 12 18.4706C6.69415 15.4235 6.70591 10.5293 6.70591 9.6764C6.70591 9.04112 6.67061 8.23524 6.93532 7.64113C8.08238 6.06465 10.7882 5.57642 12 5.52936C13.2117 5.57642 15.9177 6.05878 17.0647 7.64701C17.3294 8.23524 17.2941 9.04112 17.2941 9.6764Z" fill="#FDDF04"/>
<path d="M12.2648 13.9881H12.4472C12.5236 13.9881 12.5884 13.9353 12.5884 13.8705C12.5884 13.8118 12.5295 13.7647 12.4472 13.7647L12.1648 13.7706C11.9296 13.7823 11.7706 13.8059 11.6707 13.8411C11.622 13.8557 11.5775 13.8819 11.5413 13.9176C11.506 13.9588 11.4942 14.0176 11.5236 14.0647C11.5531 14.1235 11.6414 14.1471 11.7001 14.1235C11.7192 14.1187 11.7366 14.1091 11.751 14.0957C11.7654 14.0824 11.7761 14.0657 11.7825 14.047L11.9296 14.0117L11.8707 14.0823C11.7943 14.1765 11.7001 14.2588 11.6118 14.3059C11.5531 14.3353 11.5354 14.3882 11.559 14.4411C11.5884 14.4882 11.653 14.5177 11.7178 14.5059L11.9237 14.4706L11.8413 14.5411C11.7649 14.6 11.6471 14.7117 11.5354 14.7176C11.4589 14.7236 11.406 14.7764 11.4178 14.8412C11.4178 14.8999 11.4883 14.947 11.5648 14.9411C11.653 14.9352 11.7413 14.894 11.8177 14.8528C12.0277 14.7124 12.2193 14.5465 12.3883 14.3587C12.4017 14.3421 12.409 14.3214 12.409 14.3C12.409 14.2786 12.4017 14.2578 12.3883 14.2411C12.3709 14.22 12.3479 14.2038 12.3221 14.1944C12.2962 14.1851 12.2683 14.183 12.2413 14.1883L12.0943 14.2117L12.2648 13.9881ZM11.9296 15C12.1412 14.9176 12.3589 14.9352 12.5002 14.9823C12.5707 15.0059 12.606 15.0705 12.5766 15.1353C12.5472 15.1941 12.4649 15.2234 12.3942 15.2C12.2818 15.167 12.1616 15.1733 12.0531 15.2177C11.9296 15.2646 11.7825 15.3881 11.7001 15.6647C11.6825 15.7353 11.7354 15.8176 11.8295 15.8588C11.8766 15.8765 11.9296 15.8823 11.9765 15.8706C12.0482 15.8515 12.112 15.8103 12.1589 15.753C12.2119 15.7059 12.3002 15.6941 12.3589 15.7353C12.4237 15.7764 12.4354 15.8529 12.3883 15.9059C12.2884 16.0117 12.1766 16.0765 12.0531 16.1058C11.9371 16.1316 11.8159 16.1214 11.706 16.0765C11.5119 15.9941 11.3707 15.8058 11.4237 15.6117C11.5236 15.2823 11.7119 15.0941 11.9296 15ZM12.4943 11.4529C12.5136 11.4772 12.5227 11.5081 12.5194 11.5388C12.5159 11.5697 12.5007 11.598 12.4766 11.6176L12.2648 11.7882C12.1883 11.8588 12.1237 11.9293 12.0884 12.0059C12.0531 12.0824 12.0413 12.1706 12.006 12.2471C12.0531 12.2999 12.1119 12.3353 12.1648 12.3529H12.2648C12.3138 12.3301 12.3547 12.2933 12.3825 12.2471C12.4178 12.1882 12.4884 12.1823 12.5413 12.2176C12.5942 12.2587 12.6001 12.3294 12.5648 12.3823C12.5109 12.4609 12.4352 12.5223 12.3471 12.5588C12.2701 12.5887 12.1856 12.5928 12.106 12.5706C12.0111 12.5424 11.9244 12.4921 11.853 12.4234C11.7706 12.4823 11.6707 12.5 11.5825 12.5529C11.5692 12.561 11.5542 12.5662 11.5388 12.5682C11.5233 12.5703 11.5075 12.5691 11.4926 12.5645C11.4776 12.5601 11.4637 12.5526 11.4519 12.5426C11.44 12.5324 11.4304 12.5199 11.4237 12.5058C11.4108 12.4792 11.4084 12.4486 11.4172 12.4201C11.4259 12.3917 11.4451 12.3677 11.4707 12.3529L11.559 12.3117C11.6414 12.2764 11.759 12.2471 11.8002 12.1529C11.8413 12.0706 11.8472 11.9823 11.8884 11.9058C11.9472 11.7882 12.0354 11.6882 12.1178 11.6117L12.3355 11.4352C12.3825 11.3999 12.4531 11.4058 12.4943 11.4529ZM11.7531 12.8411C11.6883 12.8647 11.6118 12.8411 11.5766 12.7824C11.5531 12.7235 11.5825 12.6529 11.653 12.6293C11.7278 12.5997 11.808 12.5857 11.8884 12.5881C11.9296 12.5881 11.9942 12.6058 12.0413 12.647C12.0884 12.6941 12.1001 12.7528 12.1001 12.8117C12.0874 12.8875 12.055 12.9585 12.006 13.0176C11.9178 13.1352 11.8061 13.2529 11.7237 13.3705C11.6883 13.4294 11.6766 13.4587 11.6766 13.4765C11.6766 13.5117 11.7119 13.5235 11.7472 13.5294C11.9547 13.2773 12.1508 13.0164 12.3355 12.7471C12.3766 12.6882 12.4531 12.6705 12.5236 12.7059C12.5825 12.7353 12.606 12.8058 12.5707 12.8588C12.4649 13.0294 12.3177 13.2176 12.1883 13.3882C12.2154 13.4375 12.2512 13.4814 12.2943 13.5176L12.3059 13.5058C12.3471 13.4471 12.4237 13.4353 12.4884 13.4706C12.5472 13.5058 12.5648 13.5764 12.5236 13.6294C12.4993 13.6639 12.4678 13.6929 12.4313 13.7143C12.3947 13.7356 12.354 13.7488 12.3118 13.7529C12.2368 13.756 12.1633 13.7308 12.106 13.6823C12.0733 13.6564 12.0436 13.6269 12.0177 13.5941L11.9119 13.7176C11.8877 13.7448 11.854 13.7617 11.8177 13.7647C11.7372 13.7691 11.6567 13.7549 11.5825 13.7235C11.4942 13.6823 11.4119 13.6 11.4119 13.4765C11.4178 13.3975 11.4465 13.3219 11.4942 13.2588C11.5766 13.1293 11.6942 13.0235 11.7884 12.8941L11.8295 12.8235C11.8035 12.8266 11.7778 12.8325 11.7531 12.8411Z" fill="#025DA7"/>
</svg>

<svg xmlns="http://www.w3.org/2000/svg" width="24" height="24" fill="none" viewBox="0 0 24 24">
    <path fill="#FDDF04" fill-rule="evenodd" d="M12 22a10 10 0 1 0 0-20 10 10 0 0 0 0 20m0-.388a9.613 9.613 0 0 0 6.797-16.409A9.613 9.613 0 0 0 2.388 12 9.61 9.61 0 0 0 12 21.612" clip-rule="evenodd"/>
    <path fill="#0060A4" d="M6.706 9.676c0 .853-.006 5.748 5.294 8.795 5.3-3.047 5.294-7.942 5.294-8.795v-.029c0-.741-.088-1.676-.23-2C15.919 6.071 13.213 5.582 12 5.535c-1.212.047-3.918.53-5.065 2.118a7 7 0 0 0-.23 1.994z"/>
    <path fill="#FDDF04" d="M10.823 10.235h2.353v7.06h-2.353z"/>
    <path fill="#FEFEF7" d="M11.17 10.518h1.718v6.694h-1.717z"/>
    <path fill="#FDDF04" d="m9.253 10.612-1.041 1.235-.465-.37 1.041-1.242zm5.518 0 .988 1.235.465-.37-.989-1.242zm-3.67 3.87-1.16 1.342-.435-.383 1.317-1.382zm1.77 0L14 15.818l.353-.289-1.177-1.47zm-1.83-3.876-2.47 2.912-.465-.377 2.47-2.911.471.376zm1.888 0 2.471 2.912.47-.377-2.488-2.906-.458.377zm-1.758 1.835-2.089 2.394-.458-.376 2.2-2.459zm1.711.147 2.012 2.253.453-.388L13.177 12z"/>
    <path fill="#FDDF04" d="M7.882 10.235h8.236v.588H7.882z"/>
    <path fill="#FEFEF7" fill-rule="evenodd" d="m12.053 7.265-.041-.194-.036.194a1.24 1.24 0 0 0-1.147.853l-.24-.03.217.118a1.2 1.2 0 0 0 .459 1.253l-.136.27.23-.211a1.26 1.26 0 0 0 1.312 0l.229.211-.135-.27a1.205 1.205 0 0 0 .458-1.259l.218-.118-.235.036a1.24 1.24 0 0 0-1.153-.853m0 0h-.077l-.182.976-.97-.123-.024.082.853.453-.394.806.094.059.653-.612.659.612.094-.06-.394-.805.852-.453a.2.2 0 0 0-.023-.082l-.965.123-.182-.976z" clip-rule="evenodd"/>
    <path fill="#DAD777" d="M12.459 8.53a.453.453 0 0 1-.46.446.45.45 0 0 1-.458-.447c0-.253.206-.453.459-.453s.459.2.459.453"/>
    <path fill="#FDDF04" fill-rule="evenodd" d="M12 16.941c-2.447-1.635-4.118-4.306-4.118-7.265q.002-.725.106-1.44a4.8 4.8 0 0 1 1.883-1.118A8.4 8.4 0 0 1 12 6.706a8.4 8.4 0 0 1 2.13.412 4.8 4.8 0 0 1 1.882 1.117l.053.383q.053.53.053 1.058v.006c0 .724-.136 4.589-4.118 7.265zm5.294-7.265c0 .853.006 5.748-5.294 8.795-5.306-3.047-5.294-7.942-5.294-8.795 0-.635-.035-1.44.23-2.035C8.081 6.065 10.787 5.576 12 5.53c1.212.047 3.918.53 5.065 2.118.264.588.23 1.394.23 2.03" clip-rule="evenodd"/>
    <path fill="#025DA7" d="M12.265 13.988h.182c.077 0 .141-.053.141-.117 0-.06-.058-.106-.14-.106l-.283.006a2 2 0 0 0-.494.07.3.3 0 0 0-.13.077c-.035.04-.047.1-.017.147.03.059.117.082.176.059a.12.12 0 0 0 .083-.077l.147-.035-.06.07a.9.9 0 0 1-.258.224c-.059.03-.077.082-.053.135.03.047.094.077.159.065l.206-.035-.083.07c-.076.059-.194.17-.306.177-.076.006-.129.058-.117.123 0 .059.07.106.147.1a.65.65 0 0 0 .253-.088q.316-.211.57-.494a.09.09 0 0 0 0-.118.16.16 0 0 0-.147-.053l-.147.024zM11.93 15a.87.87 0 0 1 .57-.018c.07.024.106.088.077.153-.03.06-.112.088-.183.065a.5.5 0 0 0-.34.018c-.124.047-.271.17-.354.447-.018.07.035.153.13.194.047.018.1.023.146.012a.35.35 0 0 0 .183-.118c.053-.047.141-.059.2-.018.065.041.076.118.03.17a.67.67 0 0 1-.336.2.6.6 0 0 1-.347-.029c-.194-.082-.335-.27-.282-.464.1-.33.288-.518.506-.612m.564-3.547a.12.12 0 0 1-.017.165l-.212.17a.7.7 0 0 0-.177.218c-.035.076-.047.165-.082.241a.4.4 0 0 0 .159.106h.1a.27.27 0 0 0 .117-.106c.036-.059.106-.065.16-.03a.12.12 0 0 1 .023.165.5.5 0 0 1-.218.177.4.4 0 0 1-.241.012.6.6 0 0 1-.253-.148c-.082.06-.182.077-.27.13a.112.112 0 0 1-.16-.047.117.117 0 0 1 .048-.153l.088-.041c.082-.036.2-.065.241-.16.041-.081.047-.17.088-.246.06-.118.147-.218.23-.294l.217-.177a.12.12 0 0 1 .16.018m-.74 1.388a.15.15 0 0 1-.177-.059.115.115 0 0 1 .076-.153.6.6 0 0 1 .235-.04.25.25 0 0 1 .153.058.22.22 0 0 1 .06.165.44.44 0 0 1-.095.206c-.088.117-.2.235-.282.352-.036.06-.047.089-.047.107 0 .035.035.046.07.052q.312-.378.588-.782c.042-.059.118-.076.189-.041.059.03.082.1.047.153-.106.17-.253.359-.383.53q.041.074.106.129l.012-.012c.041-.059.118-.07.182-.035.06.035.077.105.036.158a.3.3 0 0 1-.212.124.3.3 0 0 1-.206-.07.5.5 0 0 1-.088-.089l-.106.124a.14.14 0 0 1-.094.047.5.5 0 0 1-.236-.042.27.27 0 0 1-.17-.247.4.4 0 0 1 .082-.217c.083-.13.2-.236.294-.365l.041-.07a.4.4 0 0 0-.076.017"/>
</svg>
